src/images/freeday-icon.svg

<svg width="27" height="36" viewBox="0 0 27 36" fill="none" xmlns="http://www.w3.org/2000/svg">
<path d="M13.4706 35.48C9.21456 35.48 6.03056 34.296 3.91856 31.928C1.83856 29.56 0.702563 26.456 0.510563 22.616C0.478563 21.752 0.462563 20.28 0.462563 18.2C0.462563 16.088 0.478563 14.584 0.510563 13.688C0.670563 9.912 1.82256 6.84 3.96656 4.472C6.11056 2.104 9.27856 0.919998 13.4706 0.919998C17.6946 0.919998 20.8786 2.104 23.0226 4.472C25.1666 6.84 26.3026 9.912 26.4306 13.688C26.4946 14.584 26.5266 16.088 26.5266 18.2C26.5266 20.28 26.4946 21.752 26.4306 22.616C26.2706 26.456 25.1346 29.56 23.0226 31.928C20.9426 34.296 17.7586 35.48 13.4706 35.48ZM13.4706 29.96C15.4866 29.96 16.9906 29.304 17.9826 27.992C18.9746 26.648 19.5026 24.776 19.5666 22.376C19.6306 20.52 19.6626 19.112 19.6626 18.152C19.6626 17.096 19.6306 15.704 19.5666 13.976C19.5026 11.608 18.9746 9.752 17.9826 8.408C16.9906 7.064 15.4866 6.392 13.4706 6.392C11.4866 6.392 9.98256 7.064 8.95856 8.408C7.96656 9.752 7.43856 11.608 7.37456 13.976C7.34256 14.84 7.32656 16.232 7.32656 18.152C7.32656 20.04 7.34256 21.448 7.37456 22.376C7.43856 24.776 7.96656 26.648 8.95856 27.992C9.98256 29.304 11.4866 29.96 13.4706 29.96Z" fill="#56D4AE"/>
</svg>

<svg width="27" height="36" fill="none" xmlns="http://www.w3.org/2000/svg"><path d="M13.47 35.48c-4.26 0-7.44-1.18-9.55-3.55C1.84 29.56.7 26.46.52 22.62c-.04-.87-.06-2.34-.06-4.42 0-2.11.02-3.62.05-4.51.16-3.78 1.31-6.85 3.46-9.22C6.1 2.1 9.27.92 13.47.92c4.22 0 7.4 1.18 9.55 3.55 2.15 2.37 3.28 5.44 3.41 9.22.06.9.1 2.4.1 4.51 0 2.08-.04 3.55-.1 4.42-.16 3.84-1.3 6.94-3.4 9.3-2.09 2.38-5.27 3.56-9.56 3.56zm0-5.52c2.02 0 3.52-.66 4.51-1.97 1-1.34 1.52-3.21 1.59-5.61.06-1.86.1-3.27.1-4.23 0-1.05-.04-2.45-.1-4.17-.07-2.37-.6-4.23-1.59-5.57-.99-1.35-2.5-2.02-4.5-2.02s-3.5.67-4.52 2.02c-1 1.34-1.52 3.2-1.59 5.57a127 127 0 00-.04 4.17c0 1.89.01 3.3.04 4.23.07 2.4.6 4.27 1.59 5.61 1.02 1.31 2.53 1.97 4.51 1.97z" fill="#56D4AE"/></svg>
